images/3233606.svg

<?xml version="1.0" encoding="UTF-8"?>
<svg xmlns="http://www.w3.org/2000/svg" xmlns:xlink="http://www.w3.org/1999/xlink" width="300pt" height="300pt" viewBox="0 0 300 300" version="1.1">
<defs>
<g>
<symbol overflow="visible" id="glyph0-0">
<path style="stroke:none;" d="M 0.453125 1.59375 L 0.453125 -6.34375 L 4.953125 -6.34375 L 4.953125 1.59375 Z M 0.953125 1.09375 L 4.453125 1.09375 L 4.453125 -5.84375 L 0.953125 -5.84375 Z M 0.953125 1.09375 "/>
</symbol>
<symbol overflow="visible" id="glyph0-1">
<path style="stroke:none;" d="M 0.890625 -6.5625 L 2.078125 -6.5625 L 4.984375 -1.078125 L 4.984375 -6.5625 L 5.84375 -6.5625 L 5.84375 0 L 4.65625 0 L 1.75 -5.484375 L 1.75 0 L 0.890625 0 Z M 0.890625 -6.5625 "/>
</symbol>
<symbol overflow="visible" id="glyph0-2">
<path style="stroke:none;" d="M 3.546875 -5.953125 C 2.898438 -5.953125 2.382812 -5.710938 2 -5.234375 C 1.625 -4.753906 1.4375 -4.101562 1.4375 -3.28125 C 1.4375 -2.445312 1.625 -1.789062 2 -1.3125 C 2.382812 -0.832031 2.898438 -0.59375 3.546875 -0.59375 C 4.191406 -0.59375 4.703125 -0.832031 5.078125 -1.3125 C 5.453125 -1.789062 5.640625 -2.445312 5.640625 -3.28125 C 5.640625 -4.101562 5.453125 -4.753906 5.078125 -5.234375 C 4.703125 -5.710938 4.191406 -5.953125 3.546875 -5.953125 Z M 3.546875 -6.6875 C 4.460938 -6.6875 5.195312 -6.375 5.75 -5.75 C 6.300781 -5.132812 6.578125 -4.3125 6.578125 -3.28125 C 6.578125 -2.238281 6.300781 -1.410156 5.75 -0.796875 C 5.195312 -0.179688 4.460938 0.125 3.546875 0.125 C 2.617188 0.125 1.878906 -0.179688 1.328125 -0.796875 C 0.773438 -1.410156 0.5 -2.238281 0.5 -3.28125 C 0.5 -4.3125 0.773438 -5.132812 1.328125 -5.75 C 1.878906 -6.375 2.617188 -6.6875 3.546875 -6.6875 Z M 3.546875 -6.6875 "/>
</symbol>
<symbol overflow="visible" id="glyph0-3">
<path style="stroke:none;" d="M 0.890625 -6.5625 L 4.65625 -6.5625 L 4.65625 -5.8125 L 1.765625 -5.8125 L 1.765625 -3.875 L 4.375 -3.875 L 4.375 -3.140625 L 1.765625 -3.140625 L 1.765625 0 L 0.890625 0 Z M 0.890625 -6.5625 "/>
</symbol>
</g>
</defs>
<g id="surface31305">
<rect x="0" y="0" width="300" height="300" style="fill:rgb(100%,100%,100%);fill-opacity:1;stroke:none;"/>
<path style="fill:none;stroke-width:1.2;stroke-linecap:butt;stroke-linejoin:miter;stroke:rgb(0%,0%,0%);stroke-opacity:1;stroke-miterlimit:10;" d="M 164.867188 177.601562 L 147.863281 184.949219 "/>
<path style="fill:none;stroke-width:1.2;stroke-linecap:butt;stroke-linejoin:miter;stroke:rgb(0%,0%,0%);stroke-opacity:1;stroke-miterlimit:10;" d="M 167.003906 159.199219 L 164.867188 177.601562 "/>
<path style="fill:none;stroke-width:1.2;stroke-linecap:butt;stroke-linejoin:miter;stroke:rgb(0%,0%,0%);stroke-opacity:1;stroke-miterlimit:10;" d="M 147.863281 184.949219 L 140.429688 179.425781 "/>
<path style="fill:none;stroke-width:1.2;stroke-linecap:butt;stroke-linejoin:miter;stroke:rgb(0%,0%,100%);stroke-opacity:1;stroke-miterlimit:10;" d="M 140.429688 179.425781 L 132.996094 173.898438 "/>
<path style="fill:none;stroke-width:1.2;stroke-linecap:butt;stroke-linejoin:miter;stroke:rgb(0%,0%,100%);stroke-opacity:1;stroke-miterlimit:10;" d="M 132.996094 173.898438 L 134.066406 164.699219 "/>
<path style="fill:none;stroke-width:1.2;stroke-linecap:butt;stroke-linejoin:miter;stroke:rgb(0%,0%,0%);stroke-opacity:1;stroke-miterlimit:10;" d="M 134.066406 164.699219 L 135.132812 155.5 "/>
<path style="fill:none;stroke-width:1.2;stroke-linecap:butt;stroke-linejoin:miter;stroke:rgb(0%,0%,100%);stroke-opacity:1;stroke-miterlimit:10;" d="M 132.996094 173.898438 L 124.496094 177.574219 "/>
<path style="fill:none;stroke-width:1.2;stroke-linecap:butt;stroke-linejoin:miter;stroke:rgb(0%,0%,0%);stroke-opacity:1;stroke-miterlimit:10;" d="M 124.496094 177.574219 L 115.992188 181.246094 "/>
<path style=" stroke:none;fill-rule:nonzero;fill:rgb(100%,100%,100%);fill-opacity:1;" d="M 129.996094 168.398438 L 136.996094 168.398438 L 136.996094 179.398438 L 129.996094 179.398438 Z M 129.996094 168.398438 "/>
<g style="fill:rgb(0%,0%,100%);fill-opacity:1;">
  <use xlink:href="#glyph0-1" x="129.996094" y="177.061523"/>
</g>
<path style="fill:none;stroke-width:1.2;stroke-linecap:butt;stroke-linejoin:miter;stroke:rgb(0%,0%,0%);stroke-opacity:1;stroke-miterlimit:10;" d="M 135.132812 155.5 L 152.136719 148.148438 "/>
<path style="fill:none;stroke-width:1.2;stroke-linecap:butt;stroke-linejoin:miter;stroke:rgb(0%,0%,0%);stroke-opacity:1;stroke-miterlimit:10;" d="M 152.136719 148.148438 L 167.003906 159.199219 "/>
<path style="fill:none;stroke-width:1.2;stroke-linecap:butt;stroke-linejoin:miter;stroke:rgb(0%,0%,0%);stroke-opacity:1;stroke-miterlimit:10;" d="M 167.003906 159.199219 L 181.871094 170.25 "/>
<path style="fill:none;stroke-width:1.2;stroke-linecap:butt;stroke-linejoin:miter;stroke:rgb(0%,0%,0%);stroke-opacity:1;stroke-miterlimit:10;" d="M 169.140625 140.800781 L 167.003906 159.199219 "/>
<path style="fill:none;stroke-width:1.2;stroke-linecap:butt;stroke-linejoin:miter;stroke:rgb(0%,0%,0%);stroke-opacity:1;stroke-miterlimit:10;" d="M 181.871094 170.25 L 198.875 162.902344 "/>
<path style="fill:none;stroke-width:1.2;stroke-linecap:butt;stroke-linejoin:miter;stroke:rgb(0%,0%,0%);stroke-opacity:1;stroke-miterlimit:10;" d="M 198.875 162.902344 L 199.941406 153.703125 "/>
<path style="fill:none;stroke-width:1.2;stroke-linecap:butt;stroke-linejoin:miter;stroke:rgb(0%,0%,100%);stroke-opacity:1;stroke-miterlimit:10;" d="M 199.941406 153.703125 L 201.011719 144.5 "/>
<path style="fill:none;stroke-width:1.2;stroke-linecap:butt;stroke-linejoin:miter;stroke:rgb(0%,0%,100%);stroke-opacity:1;stroke-miterlimit:10;" d="M 201.011719 144.5 L 193.578125 138.976562 "/>
<path style="fill:none;stroke-width:1.2;stroke-linecap:butt;stroke-linejoin:miter;stroke:rgb(0%,0%,0%);stroke-opacity:1;stroke-miterlimit:10;" d="M 193.578125 138.976562 L 186.144531 133.449219 "/>
<path style="fill:none;stroke-width:1.2;stroke-linecap:butt;stroke-linejoin:miter;stroke:rgb(0%,0%,100%);stroke-opacity:1;stroke-miterlimit:10;" d="M 201.011719 144.5 L 209.511719 140.828125 "/>
<path style="fill:none;stroke-width:1.2;stroke-linecap:butt;stroke-linejoin:miter;stroke:rgb(0%,0%,0%);stroke-opacity:1;stroke-miterlimit:10;" d="M 209.511719 140.828125 L 218.015625 137.152344 "/>
<path style=" stroke:none;fill-rule:nonzero;fill:rgb(100%,100%,100%);fill-opacity:1;" d="M 198.011719 139 L 205.011719 139 L 205.011719 150 L 198.011719 150 Z M 198.011719 139 "/>
<g style="fill:rgb(0%,0%,100%);fill-opacity:1;">
  <use xlink:href="#glyph0-1" x="198.011719" y="147.663086"/>
</g>
<path style="fill:none;stroke-width:1.2;stroke-linecap:butt;stroke-linejoin:miter;stroke:rgb(0%,0%,0%);stroke-opacity:1;stroke-miterlimit:10;" d="M 186.144531 133.449219 L 169.140625 140.800781 "/>
<path style="fill:none;stroke-width:1.2;stroke-linecap:butt;stroke-linejoin:miter;stroke:rgb(0%,0%,0%);stroke-opacity:1;stroke-miterlimit:10;" d="M 220.179688 137.402344 L 221.246094 128.203125 "/>
<path style="fill:none;stroke-width:1.2;stroke-linecap:butt;stroke-linejoin:miter;stroke:rgb(100%,0%,0%);stroke-opacity:1;stroke-miterlimit:10;" d="M 221.246094 128.203125 L 222.316406 119.003906 "/>
<path style="fill:none;stroke-width:1.2;stroke-linecap:butt;stroke-linejoin:miter;stroke:rgb(0%,0%,0%);stroke-opacity:1;stroke-miterlimit:10;" d="M 215.847656 136.902344 L 216.917969 127.699219 "/>
<path style="fill:none;stroke-width:1.2;stroke-linecap:butt;stroke-linejoin:miter;stroke:rgb(100%,0%,0%);stroke-opacity:1;stroke-miterlimit:10;" d="M 216.917969 127.699219 L 217.984375 118.5 "/>
<path style="fill:none;stroke-width:1.2;stroke-linecap:butt;stroke-linejoin:miter;stroke:rgb(0%,0%,0%);stroke-opacity:1;stroke-miterlimit:10;" d="M 218.015625 137.152344 L 232.878906 148.203125 "/>
<path style=" stroke:none;fill-rule:nonzero;fill:rgb(100%,100%,100%);fill-opacity:1;" d="M 216.152344 113.253906 L 224.152344 113.253906 L 224.152344 124.253906 L 216.152344 124.253906 Z M 216.152344 113.253906 "/>
<g style="fill:rgb(100%,0%,0%);fill-opacity:1;">
  <use xlink:href="#glyph0-2" x="216.152344" y="121.916992"/>
</g>
<path style="fill:none;stroke-width:1.2;stroke-linecap:butt;stroke-linejoin:miter;stroke:rgb(0%,0%,0%);stroke-opacity:1;stroke-miterlimit:10;" d="M 232.878906 148.203125 L 230.742188 166.601562 "/>
<path style="fill:none;stroke-width:1.2;stroke-linecap:butt;stroke-linejoin:miter;stroke:rgb(0%,0%,0%);stroke-opacity:1;stroke-miterlimit:10;" d="M 236.996094 150.546875 L 235.285156 165.265625 "/>
<path style="fill:none;stroke-width:1.2;stroke-linecap:butt;stroke-linejoin:miter;stroke:rgb(0%,0%,0%);stroke-opacity:1;stroke-miterlimit:10;" d="M 249.882812 140.851562 L 232.878906 148.203125 "/>
<path style="fill:none;stroke-width:1.2;stroke-linecap:butt;stroke-linejoin:miter;stroke:rgb(0%,0%,0%);stroke-opacity:1;stroke-miterlimit:10;" d="M 230.742188 166.601562 L 245.609375 177.652344 "/>
<path style="fill:none;stroke-width:1.2;stroke-linecap:butt;stroke-linejoin:miter;stroke:rgb(0%,0%,0%);stroke-opacity:1;stroke-miterlimit:10;" d="M 245.609375 177.652344 L 262.613281 170.304688 "/>
<path style="fill:none;stroke-width:1.2;stroke-linecap:butt;stroke-linejoin:miter;stroke:rgb(0%,0%,0%);stroke-opacity:1;stroke-miterlimit:10;" d="M 245.582031 172.917969 L 259.183594 167.039062 "/>
<path style="fill:none;stroke-width:1.2;stroke-linecap:butt;stroke-linejoin:miter;stroke:rgb(0%,0%,0%);stroke-opacity:1;stroke-miterlimit:10;" d="M 245.609375 177.652344 L 244.542969 186.855469 "/>
<path style="fill:none;stroke-width:1.2;stroke-linecap:butt;stroke-linejoin:miter;stroke:rgb(20%,80%,80%);stroke-opacity:1;stroke-miterlimit:10;" d="M 244.542969 186.855469 L 243.472656 196.054688 "/>
<path style="fill:none;stroke-width:1.2;stroke-linecap:butt;stroke-linejoin:miter;stroke:rgb(0%,0%,0%);stroke-opacity:1;stroke-miterlimit:10;" d="M 262.613281 170.304688 L 264.75 151.902344 "/>
<path style="fill:none;stroke-width:1.2;stroke-linecap:butt;stroke-linejoin:miter;stroke:rgb(0%,0%,0%);stroke-opacity:1;stroke-miterlimit:10;" d="M 264.75 151.902344 L 249.882812 140.851562 "/>
<path style="fill:none;stroke-width:1.2;stroke-linecap:butt;stroke-linejoin:miter;stroke:rgb(0%,0%,0%);stroke-opacity:1;stroke-miterlimit:10;" d="M 260.664062 154.296875 L 248.769531 145.457031 "/>
<path style=" stroke:none;fill-rule:nonzero;fill:rgb(100%,100%,100%);fill-opacity:1;" d="M 240.472656 190.554688 L 246.472656 190.554688 L 246.472656 201.554688 L 240.472656 201.554688 Z M 240.472656 190.554688 "/>
<g style="fill:rgb(20%,80%,80%);fill-opacity:1;">
  <use xlink:href="#glyph0-3" x="240.472656" y="199.217773"/>
</g>
<path style="fill:none;stroke-width:1.2;stroke-linecap:butt;stroke-linejoin:miter;stroke:rgb(0%,0%,0%);stroke-opacity:1;stroke-miterlimit:10;" d="M 115.992188 181.246094 L 101.125 170.199219 "/>
<path style="fill:none;stroke-width:1.2;stroke-linecap:butt;stroke-linejoin:miter;stroke:rgb(0%,0%,0%);stroke-opacity:1;stroke-miterlimit:10;" d="M 101.125 170.199219 L 103.265625 151.796875 "/>
<path style="fill:none;stroke-width:1.2;stroke-linecap:butt;stroke-linejoin:miter;stroke:rgb(0%,0%,0%);stroke-opacity:1;stroke-miterlimit:10;" d="M 97.011719 167.855469 L 98.71875 153.132812 "/>
<path style="fill:none;stroke-width:1.2;stroke-linecap:butt;stroke-linejoin:miter;stroke:rgb(0%,0%,0%);stroke-opacity:1;stroke-miterlimit:10;" d="M 84.125 177.546875 L 101.125 170.199219 "/>
<path style="fill:none;stroke-width:1.2;stroke-linecap:butt;stroke-linejoin:miter;stroke:rgb(0%,0%,0%);stroke-opacity:1;stroke-miterlimit:10;" d="M 103.265625 151.796875 L 88.398438 140.746094 "/>
<path style="fill:none;stroke-width:1.2;stroke-linecap:butt;stroke-linejoin:miter;stroke:rgb(0%,0%,0%);stroke-opacity:1;stroke-miterlimit:10;" d="M 88.398438 140.746094 L 71.394531 148.097656 "/>
<path style="fill:none;stroke-width:1.2;stroke-linecap:butt;stroke-linejoin:miter;stroke:rgb(0%,0%,0%);stroke-opacity:1;stroke-miterlimit:10;" d="M 88.425781 145.480469 L 74.824219 151.363281 "/>
<path style="fill:none;stroke-width:1.2;stroke-linecap:butt;stroke-linejoin:miter;stroke:rgb(0%,0%,0%);stroke-opacity:1;stroke-miterlimit:10;" d="M 88.398438 140.746094 L 90.535156 122.347656 "/>
<path style="fill:none;stroke-width:1.2;stroke-linecap:butt;stroke-linejoin:miter;stroke:rgb(0%,0%,0%);stroke-opacity:1;stroke-miterlimit:10;" d="M 71.394531 148.097656 L 69.257812 166.496094 "/>
<path style="fill:none;stroke-width:1.2;stroke-linecap:butt;stroke-linejoin:miter;stroke:rgb(0%,0%,0%);stroke-opacity:1;stroke-miterlimit:10;" d="M 69.257812 166.496094 L 84.125 177.546875 "/>
<path style="fill:none;stroke-width:1.2;stroke-linecap:butt;stroke-linejoin:miter;stroke:rgb(0%,0%,0%);stroke-opacity:1;stroke-miterlimit:10;" d="M 73.34375 164.101562 L 85.238281 172.945312 "/>
<path style="fill:none;stroke-width:1.2;stroke-linecap:butt;stroke-linejoin:miter;stroke:rgb(0%,0%,0%);stroke-opacity:1;stroke-miterlimit:10;" d="M 69.257812 166.496094 L 52.253906 173.84375 "/>
<path style="fill:none;stroke-width:1.2;stroke-linecap:butt;stroke-linejoin:miter;stroke:rgb(0%,0%,0%);stroke-opacity:1;stroke-miterlimit:10;" d="M 52.253906 173.84375 L 43.75 177.519531 "/>
<path style="fill:none;stroke-width:1.2;stroke-linecap:butt;stroke-linejoin:miter;stroke:rgb(20%,80%,80%);stroke-opacity:1;stroke-miterlimit:10;" d="M 43.75 177.519531 L 35.25 181.195312 "/>
<path style="fill:none;stroke-width:1.2;stroke-linecap:butt;stroke-linejoin:miter;stroke:rgb(0%,0%,0%);stroke-opacity:1;stroke-miterlimit:10;" d="M 52.253906 173.84375 L 48.578125 165.34375 "/>
<path style="fill:none;stroke-width:1.2;stroke-linecap:butt;stroke-linejoin:miter;stroke:rgb(20%,80%,80%);stroke-opacity:1;stroke-miterlimit:10;" d="M 48.578125 165.34375 L 44.902344 156.839844 "/>
<path style="fill:none;stroke-width:1.2;stroke-linecap:butt;stroke-linejoin:miter;stroke:rgb(0%,0%,0%);stroke-opacity:1;stroke-miterlimit:10;" d="M 52.253906 173.84375 L 55.929688 182.347656 "/>
<path style="fill:none;stroke-width:1.2;stroke-linecap:butt;stroke-linejoin:miter;stroke:rgb(20%,80%,80%);stroke-opacity:1;stroke-miterlimit:10;" d="M 55.929688 182.347656 L 59.601562 190.847656 "/>
<path style=" stroke:none;fill-rule:nonzero;fill:rgb(100%,100%,100%);fill-opacity:1;" d="M 29.25 175.695312 L 35.25 175.695312 L 35.25 186.695312 L 29.25 186.695312 Z M 29.25 175.695312 "/>
<g style="fill:rgb(20%,80%,80%);fill-opacity:1;">
  <use xlink:href="#glyph0-3" x="29.25" y="184.358398"/>
</g>
<path style=" stroke:none;fill-rule:nonzero;fill:rgb(100%,100%,100%);fill-opacity:1;" d="M 38.902344 151.339844 L 44.902344 151.339844 L 44.902344 162.339844 L 38.902344 162.339844 Z M 38.902344 151.339844 "/>
<g style="fill:rgb(20%,80%,80%);fill-opacity:1;">
  <use xlink:href="#glyph0-3" x="38.902344" y="160.00293"/>
</g>
<path style=" stroke:none;fill-rule:nonzero;fill:rgb(100%,100%,100%);fill-opacity:1;" d="M 56.601562 185.347656 L 62.601562 185.347656 L 62.601562 196.347656 L 56.601562 196.347656 Z M 56.601562 185.347656 "/>
<g style="fill:rgb(20%,80%,80%);fill-opacity:1;">
  <use xlink:href="#glyph0-3" x="56.601562" y="194.010742"/>
</g>
<path style="fill:none;stroke-width:1.2;stroke-linecap:butt;stroke-linejoin:miter;stroke:rgb(0%,0%,0%);stroke-opacity:1;stroke-miterlimit:10;" d="M 90.535156 122.347656 L 91.601562 113.144531 "/>
<path style="fill:none;stroke-width:1.2;stroke-linecap:butt;stroke-linejoin:miter;stroke:rgb(20%,80%,80%);stroke-opacity:1;stroke-miterlimit:10;" d="M 91.601562 113.144531 L 92.671875 103.945312 "/>
<path style="fill:none;stroke-width:1.2;stroke-linecap:butt;stroke-linejoin:miter;stroke:rgb(0%,0%,0%);stroke-opacity:1;stroke-miterlimit:10;" d="M 90.535156 122.347656 L 99.734375 123.414062 "/>
<path style="fill:none;stroke-width:1.2;stroke-linecap:butt;stroke-linejoin:miter;stroke:rgb(20%,80%,80%);stroke-opacity:1;stroke-miterlimit:10;" d="M 99.734375 123.414062 L 108.933594 124.484375 "/>
<path style="fill:none;stroke-width:1.2;stroke-linecap:butt;stroke-linejoin:miter;stroke:rgb(0%,0%,0%);stroke-opacity:1;stroke-miterlimit:10;" d="M 90.535156 122.347656 L 81.335938 121.277344 "/>
<path style="fill:none;stroke-width:1.2;stroke-linecap:butt;stroke-linejoin:miter;stroke:rgb(20%,80%,80%);stroke-opacity:1;stroke-miterlimit:10;" d="M 81.335938 121.277344 L 72.132812 120.210938 "/>
<path style=" stroke:none;fill-rule:nonzero;fill:rgb(100%,100%,100%);fill-opacity:1;" d="M 89.671875 98.445312 L 95.671875 98.445312 L 95.671875 109.445312 L 89.671875 109.445312 Z M 89.671875 98.445312 "/>
<g style="fill:rgb(20%,80%,80%);fill-opacity:1;">
  <use xlink:href="#glyph0-3" x="89.671875" y="107.108398"/>
</g>
<path style=" stroke:none;fill-rule:nonzero;fill:rgb(100%,100%,100%);fill-opacity:1;" d="M 105.933594 118.984375 L 111.933594 118.984375 L 111.933594 129.984375 L 105.933594 129.984375 Z M 105.933594 118.984375 "/>
<g style="fill:rgb(20%,80%,80%);fill-opacity:1;">
  <use xlink:href="#glyph0-3" x="105.933594" y="127.647461"/>
</g>
<path style=" stroke:none;fill-rule:nonzero;fill:rgb(100%,100%,100%);fill-opacity:1;" d="M 66.132812 114.710938 L 72.132812 114.710938 L 72.132812 125.710938 L 66.132812 125.710938 Z M 66.132812 114.710938 "/>
<g style="fill:rgb(20%,80%,80%);fill-opacity:1;">
  <use xlink:href="#glyph0-3" x="66.132812" y="123.374023"/>
</g>
</g>
</svg>

<svg xmlns="http://www.w3.org/2000/svg" xmlns:xlink="http://www.w3.org/1999/xlink" width="300pt" height="300pt" viewBox="0 0 300 300"><defs><symbol overflow="visible"><path d="M.453 1.594v-7.938h4.5v7.938zm.5-.5h3.5v-6.938h-3.5zm0 0"/></symbol><symbol overflow="visible" id="a"><path d="M.89-6.563H2.08l2.906 5.485v-5.484h.86V0H4.656L1.75-5.484V0H.89zm0 0"/></symbol><symbol overflow="visible" id="b"><path d="M3.547-5.953c-.65 0-1.164.242-1.547.72-.375.48-.563 1.13-.563 1.952 0 .835.188 1.49.563 1.967.383.48.898.72 1.547.72.644 0 1.156-.24 1.53-.72.376-.476.564-1.132.564-1.968 0-.822-.187-1.474-.562-1.954-.375-.477-.887-.72-1.53-.72zm0-.734c.914 0 1.648.312 2.203.937.55.617.828 1.438.828 2.47 0 1.042-.277 1.87-.828 2.483-.555.617-1.29.922-2.203.922-.93 0-1.668-.305-2.22-.922C.774-1.41.5-2.237.5-3.28c0-1.033.273-1.853.828-2.47.55-.625 1.29-.938 2.22-.938zm0 0"/></symbol><symbol overflow="visible" id="c"><path d="M.89-6.563h3.766v.75h-2.89v1.938h2.61v.734h-2.61V0H.89zm0 0"/></symbol></defs><g><path fill="#fff" d="M0 0h300v300H0z"/><path d="M164.867 177.602l-17.004 7.347M167.004 159.2l-2.137 18.402M147.863 184.95l-7.433-5.524" stroke-width="1.2" stroke="#000" stroke-miterlimit="10" fill="none"/><path d="M140.43 179.426l-7.434-5.528M132.996 173.898l1.07-9.2" stroke-width="1.2" stroke="#00f" stroke-miterlimit="10" fill="none"/><path d="M134.066 164.7l1.067-9.2" stroke-width="1.2" stroke="#000" stroke-miterlimit="10" fill="none"/><path d="M132.996 173.898l-8.5 3.676" stroke-width="1.2" stroke="#00f" stroke-miterlimit="10" fill="none"/><path d="M124.496 177.574l-8.504 3.672" stroke-width="1.2" stroke="#000" stroke-miterlimit="10" fill="none"/><path d="M129.996 168.398h7v11h-7zm0 0" fill="#fff"/><use xlink:href="#a" x="129.996" y="177.062" fill="#00f"/><path d="M135.133 155.5l17.004-7.352M152.137 148.148l14.867 11.05M167.004 159.2l14.867 11.05M169.14 140.8l-2.136 18.4M181.87 170.25l17.005-7.348M198.875 162.902l1.066-9.2" stroke-width="1.2" stroke="#000" stroke-miterlimit="10" fill="none"/><path d="M199.94 153.703l1.072-9.203M201.012 144.5l-7.434-5.523" stroke-width="1.2" stroke="#00f" stroke-miterlimit="10" fill="none"/><path d="M193.578 138.977l-7.433-5.528" stroke-width="1.2" stroke="#000" stroke-miterlimit="10" fill="none"/><path d="M201.012 144.5l8.5-3.672" stroke-width="1.2" stroke="#00f" stroke-miterlimit="10" fill="none"/><path d="M209.512 140.828l8.504-3.676" stroke-width="1.2" stroke="#000" stroke-miterlimit="10" fill="none"/><path d="M198.012 139h7v11h-7zm0 0" fill="#fff"/><use xlink:href="#a" x="198.012" y="147.663" fill="#00f"/><path d="M186.145 133.45l-17.004 7.35M220.18 137.402l1.066-9.2" stroke-width="1.2" stroke="#000" stroke-miterlimit="10" fill="none"/><path d="M221.246 128.203l1.07-9.2" stroke-width="1.2" stroke="#f00" stroke-miterlimit="10" fill="none"/><path d="M215.848 136.902l1.07-9.203" stroke-width="1.2" stroke="#000" stroke-miterlimit="10" fill="none"/><path d="M216.918 127.7l1.066-9.2" stroke-width="1.2" stroke="#f00" stroke-miterlimit="10" fill="none"/><path d="M218.016 137.152l14.863 11.05" stroke-width="1.2" stroke="#000" stroke-miterlimit="10" fill="none"/><path d="M216.152 113.254h8v11h-8zm0 0" fill="#fff"/><use xlink:href="#b" x="216.152" y="121.917" fill="#f00"/><path d="M232.88 148.203l-2.138 18.4M236.996 150.547l-1.71 14.72M249.883 140.852l-17.004 7.35M230.742 166.602l14.867 11.05M245.61 177.652l17.003-7.347M245.582 172.918l13.602-5.88M245.61 177.652l-1.067 9.203" stroke-width="1.2" stroke="#000" stroke-miterlimit="10" fill="none"/><path d="M244.543 186.855l-1.07 9.2" stroke-width="1.2" stroke="#3cc" stroke-miterlimit="10" fill="none"/><path d="M262.613 170.305l2.137-18.403M264.75 151.902l-14.867-11.05M260.664 154.297l-11.894-8.84" stroke-width="1.2" stroke="#000" stroke-miterlimit="10" fill="none"/><path d="M240.473 190.555h6v11h-6zm0 0" fill="#fff"/><use xlink:href="#c" x="240.473" y="199.218" fill="#3cc"/><path d="M115.992 181.246L101.125 170.2M101.125 170.2l2.14-18.403M97.012 167.855l1.707-14.722M84.125 177.547l17-7.348M103.266 151.797l-14.868-11.05M88.398 140.746l-17.003 7.352M88.426 145.48l-13.602 5.883M88.398 140.746l2.137-18.398M71.395 148.098l-2.137 18.398M69.258 166.496l14.867 11.05M73.344 164.102l11.894 8.843M69.258 166.496l-17.004 7.348M52.254 173.844l-8.504 3.676" stroke-width="1.2" stroke="#000" stroke-miterlimit="10" fill="none"/><path d="M43.75 177.52l-8.5 3.675" stroke-width="1.2" stroke="#3cc" stroke-miterlimit="10" fill="none"/><path d="M52.254 173.844l-3.676-8.5" stroke-width="1.2" stroke="#000" stroke-miterlimit="10" fill="none"/><path d="M48.578 165.344l-3.676-8.504" stroke-width="1.2" stroke="#3cc" stroke-miterlimit="10" fill="none"/><path d="M52.254 173.844l3.676 8.504" stroke-width="1.2" stroke="#000" stroke-miterlimit="10" fill="none"/><path d="M55.93 182.348l3.672 8.5" stroke-width="1.2" stroke="#3cc" stroke-miterlimit="10" fill="none"/><path d="M29.25 175.695h6v11h-6zm0 0" fill="#fff"/><use xlink:href="#c" x="29.25" y="184.358" fill="#3cc"/><path d="M38.902 151.34h6v11h-6zm0 0" fill="#fff"/><use xlink:href="#c" x="38.902" y="160.003" fill="#3cc"/><path d="M56.602 185.348h6v11h-6zm0 0" fill="#fff"/><use xlink:href="#c" x="56.602" y="194.011" fill="#3cc"/><path d="M90.535 122.348l1.067-9.203" stroke-width="1.2" stroke="#000" stroke-miterlimit="10" fill="none"/><path d="M91.602 113.145l1.07-9.2" stroke-width="1.2" stroke="#3cc" stroke-miterlimit="10" fill="none"/><path d="M90.535 122.348l9.2 1.066" stroke-width="1.2" stroke="#000" stroke-miterlimit="10" fill="none"/><path d="M99.734 123.414l9.2 1.07" stroke-width="1.2" stroke="#3cc" stroke-miterlimit="10" fill="none"/><path d="M90.535 122.348l-9.2-1.07" stroke-width="1.2" stroke="#000" stroke-miterlimit="10" fill="none"/><path d="M81.336 121.277l-9.203-1.066" stroke-width="1.2" stroke="#3cc" stroke-miterlimit="10" fill="none"/><path d="M89.672 98.445h6v11h-6zm0 0" fill="#fff"/><use xlink:href="#c" x="89.672" y="107.108" fill="#3cc"/><path d="M105.934 118.984h6v11h-6zm0 0" fill="#fff"/><use xlink:href="#c" x="105.934" y="127.647" fill="#3cc"/><path d="M66.133 114.71h6v11h-6zm0 0" fill="#fff"/><use xlink:href="#c" x="66.133" y="123.374" fill="#3cc"/></g></svg>
